X:3501
L:1/8
M:2/4
K:A
"A" Ac EF |"A" A2"^(D)" Af |"A" ec BA |"E7" e/f/e/c/ BA |"A" Ac EF |"A" A2"^(D)" Af | 
"A" ec"E7" BA/B/ |1"A" cA A2 :|2"A" cA A || B |"A" ce ce |"D" a2 a>f |"A" ec BA |"E7" e/f/e/c/ BA | 
"A" ce ce |"D" a2 a>f |"A" ec"E7" BA/B/ |"A" cA A || B |"A" ce ce |"D" a2 a>f |"A" ec BA | 
"E7" e/f/e/c/ BA |"A" Ac EF |"A" A2"^(D)" Af |"A" ec"E7" BA/B/ |"A" cA A2 |]

